!!!!SEGMENT: pl-wn--sd-xvi-qu-273--100_gomolka-mikolaj--wszyscy-ktorzy-po-ziemi-chodzicie.krn
!!!cenid: 15xx:305
!!!COM: Gomółka, Mikołaj
!!!COM-rismid: pe30013343
!!!CDT: ~1535->1591/04/30
!!!CNT: Polish
!!!GTL: Melodiae na psalterz polski
!!!OTL: C. Wszyscy, którzy po ziemi chodzicie,
!!!PDT: 1580
!!!AGN: Sacred
!!!SMS-siglum: PL-Wn
!!!SMS-shelfmark: SD XVI.Qu.273
!!!SMS-shelfwork: 100 G
!!!NIFC-rismid:
!!!ONB-nifc: Melodiae na psalterz polski
**kern	**text	**kern	**text	**kern	**text	**kern	**text
*part4	*part4	*part3	*part3	*part2	*part2	*part1	*part1
*staff4	*staff4	*staff3	*staff3	*staff2	*staff2	*staff1	*staff1
*clefF3	*	*clefC3	*	*clefC2	*	*clefG2	*
*k[]	*	*k[]	*	*k[]	*	*k[]	*
*C:	*	*C:	*	*C:	*	*C:	*
*M4/2	*	*M4/2	*	*M4/2	*	*M4/2	*
*met(C|)	*	*met(C|)	*	*met(C|)	*	*met(C|)	*
=-	=-	=-	=-	=-	=-	=-	=-
1G	Wsӡyʃ-	1B	Wsӡyʃ-	1d	Wsӡyʃ-	1g	Wsӡyʃ-
2C	-cy/	2c	-cy/	2.e/	-cy/	2g	-cy/
4c	ťtó-	2A/	ťtó-	.	.	2e	ťtó-
4B	.	.	.	4d	ťtó-	.	.
=3-	=3-	=3-	=3-	=3-	=3-	=3-	=3-
2A	-rӡy	2A/	-rӡy	2c	-rӡy	2f	-rӡy
2G	po	2B	po	4d	po	2g	po
.	.	.	.	4e	.	.	.
!	!'ź'	!	!'ź'	!	!'ź'	!	!'ź
2.F/	ӡie-	2c/	ӡie-	2.f	ӡie-	2.a	ӡie-
.	.	2.A	.	.	.	.	.
4E	.	.	.	4g	.	4g	.
=4-	=4-	=4-	=4-	=4-	=4-	=4-	=4-
2D	-mi	.	.	2a	-mi	2f	-mi
.	.	4B	-mi	.	.	.	.
2C	cho-	1c	cho-	4e	cho-	2e	cho-
.	.	.	.	4f	.	.	.
!	!'ź'	!	!'ź'	!	!'ź'	!	!'ź'
1G	-dӡi-	.	.	1g	-dӡi-	1d	-dӡi-
.	.	2B	-dӡi-	.	.	.	.
=5-	=5-	=5-	=5-	=5-	=5-	=5-	=5-
2C	-(ćie/)	2c/	-ćie/	2g	-(ćie/)	2e	-(ćie/)
2c	Ku	2e	Ku	2g	Ku	2g	Ku
2.F/	cӡći	2.f	cӡći	2.a	cӡći	2.cc	cӡći
4F/	pá-	4f	pá-	4a	pá-	4cc	pá-
=6-	=6-	=6-	=6-	=6-	=6-	=6-	=6-
2G	-nu	2d	-nu	2g	-nu	2b/	-nu
2C	we-	2g	we-	2cc	we-	2ee	we-
1.F	-ʃo_ło	2.a	-ʃo-	2.cc	-ʃo-	2.ff	-ʃo-
.	.	4g	.	4b	.	4ee	.
=7-	=7-	=7-	=7-	=7-	=7-	=7-	=7-
.	.	1f	-ło_ťrӡyť-	2a	-ło	2dd	-ło
2F/	ťrӡyť-	.	.	2a	ťrӡyť-	1cc	ťrӡyť-
1G	-ni-	2e	-ni-	2.g	-ni-	.	.
.	.	2d	.	.	.	2b/	-ni-
.	.	.	.	4f	.	.	.
=8-	=8-	=8-	=8-	=8-	=8-	=8-	=8-
2C	-ćie/	2c/	-ćie/	2e/	-ćie/	2cc	-ćie/
2c	W_rá-	2g	W_rá-	2a	W_rá-	2ee	W_rá-
!!LO:PB:g=original
4A	-doś-	2a	-doś-	2cc	-doś-	2ee	-doś-
4B	.	.	.	.	.	.	.
2c	-ci	4e	-ci	2cc	-ci	2ee	-ci
.	.	4f	.	.	.	.	.
=9-	=9-	=9-	=9-	=9-	=9-	=9-	=9-
2G	mu	2.g	mu	2.b	mu	2dd	mu
!	!'ź'	!	!'ż'	!	!'ż'	!	!'ż'
2G	ʃłuӡ-	.	.	.	.	2dd	ʃłuӡ-
.	.	4f	ʃłuӡ-	4a	ʃłuӡ-	.	.
2.C	-ćie/	2.e	-ćie/	2.g	-ćie/	2.cc	-ćie/
2F/	y	4.c/	y	2f	y	2a	y
=10-	=10-	=10-	=10-	=10-	=10-	=10-	=10-
.	.	.	.	.	.	.	.
.	.	8dJJ	.	.	.	.	.
4E	ӡ_o-	4e	ӡ_o-	4g	ӡ_o-	4b/	ӡ_o-
2A	-cho-	2c/	-cho-	4.e/	-cho-	2cc	-cho-
.	.	.	.	8fJk	.	.	.
2G	-tą/	2d	-tą/	2g	-tą/	2b/	-tą/
2C	A	2c/	A	2g	A	2ee	A
=11-	=11-	=11-	=11-	=11-	=11-	=11-	=11-
2.F/	ná-	2.c/	ná-	2.a	ná-	2.ff	ná-
4C	-wiedӡ-	4c/	-wiedӡ-	4g	-wiedӡ-	4ee	-wiedӡ-
2G	-ćie	2d	-ćie	2g	-ćie	2dd	-ćie
2E	Je-	4g	Je-	2b	Je-	2ee	Je-
.	.	4f	.	.	.	.	.
=12-	=12-	=12-	=12-	=12-	=12-	=12-	=12-
2.A	-go	4e	-go	1a	-go	2.cc	-go
.	.	4d	.	.	.	.	.
.	.	2.c/	cér-	.	.	.	.
4G	.	.	.	.	.	4b/	.
2F/	cér-	.	.	2a	cér-	4a	cér-
.	.	4d	.	.	.	4b	.
2E	-ťiew	2e	-ťiew	2g	-ťiew	1cc	-ťiew
=13-	=13-	=13-	=13-	=13-	=13-	=13-	=13-
2F/	ӡło-	1d	ӡło-	2a	ӡło-	.	.
2G	.	.	.	4g	.	2b/	ӡło-
.	.	.	.	4f	.	.	.
!!LO:N:vis=00
1C/	-tą.	1c	-tą.	1e	-tą.	1cc	-tą.
=-	=-	=-	=-	=-	=-	=-	=-
*-	*-	*-	*-	*-	*-	*-	*-
!!!RDF**kern: l = terminal long
!!!system-decoration: s1,s2,s3,s4
!!!RDF**kern: > = above
!!!ENC:Anna Matuszewska
!!!END:2020-02-17
!!!URL-scan: https://polona.pl/item/melodiae-ná-psalterz-polski,Nzk3MTM4ODQ/234 Scan on Polona
!!!IIIF: https://polona.pl/iiif/item/Nzk3MTM4ODQ/manifest.json
